X: 712
M: C
L: 1/16
K: Ddor
V: 1
|: G2 |\
|: A2 |\
ddd2 d3f Te4 A3e | {de}f4 Te2d2 gfed c2e2 |\
ddd2 d3f Te4 A2e2 | f2d2 gfed Tc3AA2 :|
|: g2 |\
a2a2 _bagf g2g2 agfe | f2f2 gfed e2c2c2g2 |\
a2a2 _bagf g2g2 agfe | f2d2 gfed Tc2A2A2 :|
V: 2 clef=bass middle=d
z2 |\
d4d4 A4A4 | d4d4 c4c4 |\
d4d4 A4A4 | d4d4 A4A2 :|\
|: z2 |\
f4f4 e4e4 |
d4d4 c4c4 |\
f4f4 e4e4 | d4d4 A4A2 :|\
|: z2 |\
d4d4 A4A4 | d4d4 c4c4 |\
d4d4 A4A4 |
d4d4 A4A2 :|\
|: z2 |\
f4f4 e4e4 | d4d4 c4c4 |\
f4f4 e4e4 | d4d4 A4A2 :|

